X:1
T:O Love Divine, I Come!
T:O Love Divine, I Come!
T:William Henry Pontius (1857–1937)
T:Samantha Chloe Whipple Shoup, 1897
T:Public Domain Courtesy of the Cyber Hymnal™
C:William Henry Pontius (1857–1937)
Z:Public Domain
Z:Courtesy of the Cyber Hymnal™
%%score ( 1 2 ) ( 3 4 )
L:1/8
Q:1/4=108
M:4/4
K:C
V:1 treble 
V:2 treble 
V:3 bass 
V:4 bass 
V:1
 [EG]2 | [Ec]3 [GB] [FA]2 G2 | [FA]2 [CG]2 [CE]2 [CE]2 | [DF]3 [CE] [B,D]2 [B,G]2 | %4
w: 1.~Up-|on the mount- ain|of un- rest, I|heard a voice of|
w: 2.~I|lay my sin and|un- be- lief, My|hard- ened heart, my|
w: 3.~My|soul is sick and|tired of sin, Make|Thou my spir- it|
 [DB]3 [CA] !fermata![B,G]2 [FG]2 | [Ec]3 [Ge] [Gd]2 [Gc]2 | [FA]3 [Ac] [GB]2 [FA]2 | %7
w: lov- ing quest, “Come,|I will be thy|spir- it’s rest, And|
w: sto- ny grief, At|Thy dear feet with|sweet re- lief, And|
w: pure and clean; And|en- ter gra- cious-|ly with- in, And|
 [EG]2 [Ec]2 [Dc]2 [FB]2 | !fermata![Ec]6 ||"^Refrain" G2 | (z [F^c]) [Fd]2 [Ge]2 x2 | [Ec]6 G2 | %12
w: ev- er- last- ing|home!”||||
w: will no long- er|roam.|O|* love di-|vine, I|
w: make my heart Thy|home.||||
 (z [FA]) [^Fd]2 [Fe]2 x2 | [Gd]6 [FG]2 | [Ee]3 [Fd] [Ec]2 [^GB]2 | %15
w: |||
w: * come! O|love di-|vine, I come! In|
w: |||
 (A2 !fermata![Fc]4)"^rall." (BA) | [EG]3 G [^FA]2 [=FB]2 | [Ec]6 |] %18
w: |||
w: Thee * my *|wan- derings cease, For|Thou|
w: |||
V:2
 x2 | x6 G2 | x8 | x8 | x8 | x8 | x8 | x8 | x6 || x2 | (d3 F F) x3 | x8 | (A3 ^F F) x3 | x8 | x8 | %15
 A2 x2 ^D2 x2 | x3 G x4 | x6 |] %18
V:3
 [C,C]2 | [C,C]3 [E,C] [F,C]2 [E,C]2 | [F,C]2 [E,C]2 [C,G,]2 [C,G,]2 | %3
w: ~|~ ~ ~ ~|~ ~ ~ ~|
 [B,,G,]3 [C,G,] [D,G,]2 [D,G,]2 | [D,^F,]3 [D,F,] G,2 [G,B,]2 | [C,C]3 [C,C] [D,B,]2 [E,C]2 | %6
w: ~ ~ ~ ~|~ ~ ~ ~|~ ~ ~ ~|
 [F,C]3 [F,C] [F,C]2 [F,C]2 | [G,C]2 G,2 [G,,G,]2 [G,,G,]2 | !fermata![C,G,]6 || z2 | %10
w: ~ ~ ~ ~|~ ~ ~ ~|~||
 z [G,B,][G,B,][G,B,] [G,B,]2 [G,B,]2 | [C,C]2 [C,G,]2 [C,G,]2 z2 | %12
w: O love di- vine, ~|~ I come!|
 z [F,C][F,C][F,C] [F,C]2 [F,C]2 | [G,B,]6 [G,B,]2 | [C,C]3 [G,B,] [A,C]2 [E,D]2 | %15
w: O love di- vine, ~|~ ~|~ ~ ~ ~|
 [F,C]2 [F,A,]2 !fermata![F,A,]2 [^F,C]2 | [G,C]3 [E,C] [D,C]2 G,2 | [C,G,]6 |] %18
w: wan- derings cease *|||
V:4
 x2 | x8 | x8 | x8 | x4 G,2 x2 | x8 | x8 | x2 G,2 x4 | x6 || x2 | x8 | x8 | x8 | x8 | x8 | x8 | %16
 x6 G,2 | x6 |] %18

